X: 11
I: linebreak $
T: Trenchmore
T: Tomorrow the fox will come to towne
T: longways for as many as will
C: 
N: 
K: G major
M: 6/4
L: 1/8
"G"G2 | "D"F2F2"G"G2 "D"A4"G"B2 | "D"A4"G"G2 "D"A6 | "G"G6 B6 | "G"d4"C"c2 "G"B4G2 | "D"F2F2"G"G2 "D"A4"G"B2 | "F"c4"G"B2 "D"A4"G"Bc | 
"D"d4"Em"B2 "Am D"A4A2 | "G"G6- G4G2 | "D"F4"G"G2 "D"A4"G"B2 | "D"A4F2 A4"G"D2 | "G"G2G2G2 B4B2 | "G"d4"C"c2 "G"B4G2 | 
"D"F4"G"G2 "D"A4"G"B2 | "F"c4"G"B2 "D"A6 | "G"B6 d6 | "G"d4B2 d4G2 | "D"F4"G"G2 "D"A4"G"B2 | "F"c4"G"B2 "D"A4"G"Bc | 
"D"d4"Em"B2 "Am D"A4A2 | "G"G6- G4 |] 

